tic-tac-toe-client/src/mechanics/assets/strike-TL2BR.svg

<svg xmlns="http://www.w3.org/2000/svg" width="188.976" height="188.976" viewBox="0 0 5000 5000"
     preserveAspectRatio="xMidYMid" fill-rule="evenodd" stroke-width="28.222"
     stroke-linejoin="round">
  <defs>
    <clipPath id="A">
      <path d="M0 0h5000v5000H0z"/>
    </clipPath>
  </defs>
  <g clip-path="url(#A)">
    <defs>
      <mask id="B">
        <path d="M-500-501h5980v5979H-500V-501z" fill="url(#C)"/>
      </mask>
      <linearGradient id="C" x1="2490" y1="-501" x2="2490" y2="5478" gradientUnits="userSpaceOnUse">
        <stop offset=".5" stop-color="#a6a6a6"/>
      </linearGradient>
    </defs>
    <g mask="url(#B)">
      <path fill="none" stroke="#000" stroke-width="1000"
            d="M4980 4978c-264-128-463-296-662-459-181-145-373-289-537-441-150-139-335-265-468-411-120-131-256-256-362-393-88-112-205-213-278-327-55-87-137-167-207-248-70-82-135-170-227-245-37-30-69-66-94-104-48-75-111-143-156-219-73-119-188-229-272-345-67-90-132-183-203-271-76-98-168-192-240-290-89-124-234-227-348-340-64-62-143-120-208-184-48-49-92-102-144-152-59-57-136-111-184-171-39-43-75-87-112-131-59-66-138-124-204-186L32 27 0-1"/>
    </g>
  </g>
</svg>

<?xml version="1.0" encoding="UTF-8"?>
<!DOCTYPE svg PUBLIC "-//W3C//DTD SVG 1.1//EN" "http://www.w3.org/Graphics/SVG/1.1/DTD/svg11.dtd">
<svg version="1.2" width="50mm" height="50mm" viewBox="0 0 5000 5000" preserveAspectRatio="xMidYMid" fill-rule="evenodd" stroke-width="28.222" stroke-linejoin="round" xmlns="http://www.w3.org/2000/svg" xmlns:ooo="http://xml.openoffice.org/svg/export" xmlns:xlink="http://www.w3.org/1999/xlink" xmlns:presentation="http://sun.com/xmlns/staroffice/presentation" xmlns:smil="http://www.w3.org/2001/SMIL20/" xmlns:anim="urn:oasis:names:tc:opendocument:xmlns:animation:1.0" xml:space="preserve">
 <defs class="ClipPathGroup">
  <clipPath id="presentation_clip_path" clipPathUnits="userSpaceOnUse">
   <rect x="0" y="0" width="5000" height="5000"/>
  </clipPath>
  <clipPath id="presentation_clip_path_shrink" clipPathUnits="userSpaceOnUse">
   <rect x="5" y="5" width="4990" height="4990"/>
  </clipPath>
 </defs>
 <defs class="TextShapeIndex">
  <g ooo:slide="id1" ooo:id-list="id3"/>
 </defs>
 <defs class="EmbeddedBulletChars">
  <g id="bullet-char-template-57356" transform="scale(0.00048828125,-0.00048828125)">
   <path d="M 580,1141 L 1163,571 580,0 -4,571 580,1141 Z"/>
  </g>
  <g id="bullet-char-template-57354" transform="scale(0.00048828125,-0.00048828125)">
   <path d="M 8,1128 L 1137,1128 1137,0 8,0 8,1128 Z"/>
  </g>
  <g id="bullet-char-template-10146" transform="scale(0.00048828125,-0.00048828125)">
   <path d="M 174,0 L 602,739 174,1481 1456,739 174,0 Z M 1358,739 L 309,1346 659,739 1358,739 Z"/>
  </g>
  <g id="bullet-char-template-10132" transform="scale(0.00048828125,-0.00048828125)">
   <path d="M 2015,739 L 1276,0 717,0 1260,543 174,543 174,936 1260,936 717,1481 1274,1481 2015,739 Z"/>
  </g>
  <g id="bullet-char-template-10007" transform="scale(0.00048828125,-0.00048828125)">
   <path d="M 0,-2 C -7,14 -16,27 -25,37 L 356,567 C 262,823 215,952 215,954 215,979 228,992 255,992 264,992 276,990 289,987 310,991 331,999 354,1012 L 381,999 492,748 772,1049 836,1024 860,1049 C 881,1039 901,1025 922,1006 886,937 835,863 770,784 769,783 710,716 594,584 L 774,223 C 774,196 753,168 711,139 L 727,119 C 717,90 699,76 672,76 641,76 570,178 457,381 L 164,-76 C 142,-110 111,-127 72,-127 30,-127 9,-110 8,-76 1,-67 -2,-52 -2,-32 -2,-23 -1,-13 0,-2 Z"/>
  </g>
  <g id="bullet-char-template-10004" transform="scale(0.00048828125,-0.00048828125)">
   <path d="M 285,-33 C 182,-33 111,30 74,156 52,228 41,333 41,471 41,549 55,616 82,672 116,743 169,778 240,778 293,778 328,747 346,684 L 369,508 C 377,444 397,411 428,410 L 1163,1116 C 1174,1127 1196,1133 1229,1133 1271,1133 1292,1118 1292,1087 L 1292,965 C 1292,929 1282,901 1262,881 L 442,47 C 390,-6 338,-33 285,-33 Z"/>
  </g>
  <g id="bullet-char-template-9679" transform="scale(0.00048828125,-0.00048828125)">
   <path d="M 813,0 C 632,0 489,54 383,161 276,268 223,411 223,592 223,773 276,916 383,1023 489,1130 632,1184 813,1184 992,1184 1136,1130 1245,1023 1353,916 1407,772 1407,592 1407,412 1353,268 1245,161 1136,54 992,0 813,0 Z"/>
  </g>
  <g id="bullet-char-template-8226" transform="scale(0.00048828125,-0.00048828125)">
   <path d="M 346,457 C 273,457 209,483 155,535 101,586 74,649 74,723 74,796 101,859 155,911 209,963 273,989 346,989 419,989 480,963 531,910 582,859 608,796 608,723 608,648 583,586 532,535 482,483 420,457 346,457 Z"/>
  </g>
  <g id="bullet-char-template-8211" transform="scale(0.00048828125,-0.00048828125)">
   <path d="M -4,459 L 1135,459 1135,606 -4,606 -4,459 Z"/>
  </g>
  <g id="bullet-char-template-61548" transform="scale(0.00048828125,-0.00048828125)">
   <path d="M 173,740 C 173,903 231,1043 346,1159 462,1274 601,1332 765,1332 928,1332 1067,1274 1183,1159 1299,1043 1357,903 1357,740 1357,577 1299,437 1183,322 1067,206 928,148 765,148 601,148 462,206 346,322 231,437 173,577 173,740 Z"/>
  </g>
 </defs>
 <g>
  <g id="id2" class="Master_Slide">
   <g id="bg-id2" class="Background"/>
   <g id="bo-id2" class="BackgroundObjects"/>
  </g>
 </g>
 <g class="SlideGroup">
  <g>
   <g id="container-id1">
    <g id="id1" class="Slide" clip-path="url(#presentation_clip_path)">
     <g class="Page">
      <g class="com.sun.star.drawing.OpenBezierShape">
       <g id="id3">
        <rect class="BoundingBox" stroke="none" fill="none" x="-500" y="-502" width="5981" height="5981"/>
        <defs>
         <mask id="mask1">
          <g>
           <defs>
            <linearGradient id="gradient1" x1="2490" y1="-501" x2="2490" y2="5478" gradientUnits="userSpaceOnUse">
             <stop offset="0.5" style="stop-color:rgb(166,166,166)"/>
             <stop offset="0.5" style="stop-color:rgb(166,166,166)"/>
             <stop offset="1" style="stop-color:rgb(166,166,166)"/>
             <stop offset="1" style="stop-color:rgb(166,166,166)"/>
            </linearGradient>
           </defs>
           <path style="fill:url(#gradient1)" d="M -500,-501 L 5480,-501 5480,5478 -500,5478 -500,-501 Z"/>
          </g>
         </mask>
        </defs>
        <g style="mask:url(#mask1)">
         <path fill="none" stroke="rgb(0,0,0)" stroke-width="1000" stroke-linejoin="round" d="M 4980,4978 C 4716,4850 4517,4682 4318,4519 4137,4374 3945,4230 3781,4078 3631,3939 3446,3813 3313,3667 3193,3536 3057,3411 2951,3274 2863,3162 2746,3061 2673,2947 2618,2860 2536,2780 2466,2699 2396,2617 2331,2529 2239,2454 2202,2424 2170,2388 2145,2350 2097,2275 2034,2207 1989,2131 1916,2012 1801,1902 1717,1786 1650,1696 1585,1603 1514,1515 1438,1417 1346,1323 1274,1225 1185,1101 1040,998 926,885 862,823 783,765 718,701 670,652 626,599 574,549 515,492 438,438 390,378 351,335 315,291 278,247 219,181 140,123 74,61 L 32,27 0,-1"/>
        </g>
       </g>
      </g>
     </g>
    </g>
   </g>
  </g>
 </g>
</svg>
